!!!COM:	Agricola, Alexander
!!!CDT:	~1446-1506/08/15
!!!OPR:	Missa Malheur me bat
!!!ONM:	2
!!!OTL:	Gloria
!!!AGN:	Mass; Gloria
!!!SCT:	Agr1004b
!!!SCA:	Agr1004b
!!!voices:	4
!!!voices-OPR:	4
**kern	**kern	**kern	**kern
*staff4	*staff3	*staff2	*staff1
*Ivox	*Ivox	*Ivox	*Ivox
*I"Bassus	*I"Tenor	*I"Altus	*I"Superius
*I'B	*I'T	*I'A	*I'S
*>[A,B]	*>[A,B]	*>[A,B]	*>[A,B]
*>A	*>A	*>A	*>A
*clefF4	*clefGv2	*clefGv2	*clefG2
*k[]	*k[]	*k[]	*k[]
*M2/1	*M2/1	*M2/1	*M2/1
*met(C|)	*met(O)	*met(C|)	*met(C|)
!!primary-mensuration: met(C|)
!!section: Et in terra
!!!OMD: Et in terra
=1-	=1-	=1-	=1-
*	*rscale:1/2	*	*
!	!LO:N:vis=0.	!	!
1.E	0r	0E	[0e
2F	.	.	.
=2	=2-	=2	=2
1G	0ryy	1B	0e_
1G	.	1B	.
=3	=3-	=3	=3
1A	0ryy	1c	0e]
1A	.	1c	.
=4	=4	=4	=4
!	!LO:N:vis=0.	!	!
0G	0r	1B	[0b
.	.	2G	.
.	.	[2B	.
=5	=5-	=5	=5
1G	0ryy	4B]	0b]
.	.	4c	.
.	.	1d	.
[1G	.	.	.
.	.	4c	.
.	.	4B	.
=6	=6-	=6	=6
2G]	0ryy	2.A	0cc
4F	.	.	.
4E	.	4G	.
1F	.	1A	.
=7	=7	=7	=7
!	!LO:N:vis=0.	!	!
1G	0r	0G	1b
1E	.	.	2g
.	.	.	[2b
=8	=8-	=8	=8
0G	0ryy	2.G	4b]
.	.	.	4cc
.	.	.	1dd
.	.	4A	.
.	.	2.B	.
.	.	.	4cc
.	.	4c	4b
=9	=9-	=9	=9
2.F	0ryy	2d	2.a
.	.	1e	.
4E	.	.	4g
1F	.	.	1a
.	.	2d	.
=10	=10	=10	=10
!	!LO:N:vis=0.	!	!
0E	0r	1.e	0g
.	.	4d	.
.	.	4c	.
=11	=11-	=11	=11
0r	0ryy	2d	1f
.	.	1D	.
.	.	.	1e
.	.	2C	.
=12	=12-	=12	=12
0r	0ryy	4D	1.f
.	.	4E	.
.	.	4F	.
.	.	4G	.
.	.	4A	.
.	.	4B	.
.	.	4c	4e
.	.	4d	4d
=13	=13	=13	=13
!	!LO:N:vis=0.	!	!
0r	0r	2c	2.e
.	.	4B	.
.	.	4A	4d
.	.	2G	2e
.	.	2B	2d
=14	=14-	=14	=14
0r	0ryy	2A	1f
.	.	1d	.
.	.	.	1e
.	.	2c#i	.
=15	=15-	=15	=15
1r	0ryy	1d	0d
[1B	.	1B	.
=16	=16	=16	=16
!	!LO:N:vis=0.	!	!
2B]	0r	1.c	0r
4A	.	.	.
4G	.	.	.
1A	.	.	.
.	.	4B	.
.	.	4A	.
=17	=17-	=17	=17
1B	0ryy	1.G	0r
[1E	.	.	.
.	.	4F	.
.	.	4E	.
=18	=18-	=18	=18
2E]	0ryy	2G	0r
4D	.	2A	.
4C	.	.	.
1D	.	1F	.
=19	=19	=19	=19
!	!LO:N:vis=0.	!	!
1E	0r	0E	0r
2r	.	.	.
[2AA	.	.	.
=20	=20-	=20	=20
2AA]	0ryy	1E	0r
2GG	.	.	.
4AA	.	2.E	.
4BB	.	.	.
4C	.	.	.
4D	.	4F	.
=21	=21-	=21	=21
2BB	0ryy	2G	0r
2AA	.	2A	.
1E	.	2G	.
.	.	[2E	.
=22	=22	=22	=22
!	!LO:N:vis=0.	!	!
2C	0r	2E]	0r
2G	.	1E	.
2G	.	.	.
4F	.	4D	.
4E	.	4C	.
=23	=23-	=23	=23
2F	0ryy	2D	0r
2E	.	2C	.
1C	.	4E	.
.	.	4F	.
.	.	4G	.
.	.	4A	.
=24	=24-	=24	=24
2D	0ryy	2F	0r
2.E	.	2E	.
.	.	2B	.
4D	.	.	.
4C	.	[2c	.
4BB	.	.	.
=25	=25	=25	=25
!	!LO:N:vis=0.	!	!
2.AA	0r	4c]	0r
.	.	4B	.
.	.	2A	.
4BB	.	.	.
2C	.	2G	.
[2D	.	[2F	.
=26	=26-	=26	=26
4D]	0ryy	4F]	0r
4C	.	4E	.
4BB	.	2D	.
4AA	.	.	.
2GG	.	2E	.
2FF	.	2F	.
=27	=27-	=27	=27
1BB-	0ryy	2D	0r
.	.	1G	.
1AA	.	.	.
.	.	2F#i	.
=28	=28	=28	=28
!	!LO:N:vis=0.	!	!
1GG	0r	1G	1.g
[1G	.	1E	.
.	.	.	4f
.	.	.	4e
=29	=29-	=29	=29
2G]	0ryy	0r	2.d
4F	.	.	.
4E	.	.	4e
2D	.	.	2f
2C	.	.	2e
=30	=30-	=30	=30
2D	0ryy	0r	4f
.	.	.	4e
2E	.	.	4d
.	.	.	4c
1F	.	.	4d
.	.	.	4c
.	.	.	4B
.	.	.	4A
=31	=31	=31	=31
!	!LO:N:vis=0	!	!
0E	0r	1B	2G
.	.	.	1g
.	.	[1B	.
.	.	.	[2e
=32	=32-	=32	=32
1.F	0ryy	2B]	2e]
.	.	4A	4d
.	.	4G	4c
.	.	2.A	1d
4E	.	.	.
4D	.	4G	.
=33	=33	=33	=33
!	!LO:TX:Z=22:t=Irregular barring in tenor, mm. 31-32 accommodates an apparent	!	!
!	!LO:TX:Z=6:t=counting error by Agricola (or a corruption in the mass's transmission)	!	!
!	!LO:N:vis=0.	!	!
0C	0r	2.c	2.e
.	.	4d	4f
.	.	2e	2g
.	.	2c	2a
=34	=34-	=34	=34
1r	0ryy	2e	2g
.	.	2f	1cc
1G	.	1d	.
.	.	.	2b
=35	=35-	=35	=35
1.A	0ryy	1c	1.cc
.	.	1A	.
4G	.	.	4b
4F	.	.	4a
=36	=36	=36	=36
!	!LO:N:vis=0.	!	!
1E	0r	2B	1g
.	.	1c	.
2F	.	.	2a
[2G	.	2B	[2b
=37	=37-	=37	=37
4G]	0ryy	4G	2b]
4F	.	4A	.
2.E	.	4B	4g
.	.	4c	4a
.	.	2d	4b
4D	.	.	4a
2C	.	2e	[2cc
=38	=38-	=38	=38
1F	0ryy	1A	4cc]
.	.	.	4b
.	.	.	1a
1E	.	1B	.
.	.	.	2g#i
=39	=39	=39	=39
!	!LO:N:vis=0.	!	!
0AA	[y0E	2r	0a
.	.	2.A	.
.	.	4B	.
.	.	4c	.
.	.	4d	.
=40	=40-	=40	=40
1AA	0E_yy	1e	1.cc
1AA	.	1e	.
.	.	.	4b
.	.	.	4a
=41	=41-	=41	=41
1.C	0E]yy	1.e	0g
4BB	.	4d	.
4AA	.	4c	.
=42	=42	=42	=42
!	!LO:N:vis=0.	!	!
1.GG	[y0B	1d	1.g
.	.	1d	.
2GG	.	.	4f
.	.	.	4e
=43	=43-	=43	=43
1GG	0B_yy	1d	2d
.	.	.	2.g
1GG	.	2B	.
.	.	.	4a
.	.	[2G	[2b
=44	=44-	=44	=44
0GG	0B]yy	4G]	4b]
.	.	4A	4a
.	.	4B	2.g
.	.	4c	.
.	.	1d	.
.	.	.	4f
.	.	.	4e
.	.	.	4d
=45	=45	=45	=45
!	!LO:N:vis=0.	!	!
1C	[y0c	1G	2e
.	.	.	2c
2.C	.	2r	2.e
.	.	[2G	.
4D	.	.	4f
=46	=46-	=46	=46
2E	0c_yy	2G]	2g
1F	.	2F	1a
.	.	2.A	.
4E	.	.	4g
4D	.	4B	4f
=47	=47-	=47	=47
2.C	0c]yy	4c	1e
.	.	4B	.
.	.	4A	.
4BB	.	4G	.
4AA	.	2.F	1r
4GG	.	.	.
2AA	.	.	.
.	.	4E	.
=48	=48	=48	=48
2GG	1B	1G	0r
1G	.	.	.
.	1A	1D	.
2F	.	.	.
=49	=49-	=49	=49
!	!LO:N:vis=0	!	!
1G	[y0G	2r	0r
.	.	2d	.
1C	.	2e	.
.	.	[2g	.
=50	=50-	=50	=50
2BB	0G]yy	4g]	0r
.	.	4f	.
1C	.	1e	.
2D	.	[2d	.
=51	=51	=51	=51
1E	1G	2d]	1r
.	.	2c#i	.
!	!LO:N:vis=1	!	!
[1D	[y1F	[1d	[1A
=52	=52-	=52	=52
2D]	1F]yy	1d]	2A]
4C	.	.	2B
4BB	.	.	.
2.AA	1F	2c	[1c
.	.	4B	.
4BB	.	4A	.
=53	=53-	=53	=53
1C	0E	1G	2c]
.	.	.	4B
.	.	.	4A
1C	.	2.c	1G
.	.	4B	.
=54	=54	=54	=54
1FF	0F	4A	0A
.	.	4G	.
.	.	2F	.
2r	.	2D	.
[2D	.	[2F	.
=55	=55-	=55	=55
4D]	1F	4F]	1d
4C	.	4E	.
4BB	.	4D	.
4AA	.	4C	.
1BB	1F	1D	1d
=56	=56-	=56	=56
1.C	1.E	1.C	2.e
.	.	.	4f
.	.	.	2g
4BB	2F	2D	[2g
4AA	.	.	.
=57	=57	=57	=57
2GG	1G	1E	4g]
.	.	.	4f
2C	.	.	4e
.	.	.	4d
!	!LO:N:vis=2.	!	!
[1FF	[y1A	[1F	1c
=58	=58-	=58	=58
1FF]	2A]yy	2F]	1.cc
.	2G	4E	.
.	.	4D	.
2r	1E	1C	.
2C	.	.	2b
=59	=59-	=59	=59
1D	1F	1r	1a
1BB	1G	1D	2r
.	.	.	2dd
=60	=60	=60	=60
1AA	1A	1E	2cc
.	.	.	4b
.	.	.	4a
2r	1E	1E	2g
2C	.	.	[2cc
=61	=61-	=61	=61
1D	0F	1A	4cc]
.	.	.	4b
.	.	.	4a
.	.	.	4g
1D	.	2.A	[1a
.	.	4B	.
=62	=62-	=62	=62
1AA	0E	2c	2a]
.	.	4B	4g
.	.	4A	4f
2r	.	1G	1e
2C	.	.	.
=63	=63	=63	=63
!	!LO:N:vis=0.	!	!
2.D	0r	2.F	2f
.	.	.	1a
4C	.	4G	.
2.AA	.	4A	.
.	.	4B	.
.	.	[2c	4g
4BB	.	.	4f
=64	=64-	=64	=64
2C	0ryy	4c]	2e
.	.	4B	.
2D	.	1A	1f
1BB	.	.	.
.	.	2G#i	4e
.	.	.	4d
=65	=65-	=65	=65
2.AA	0ryy	1A	1c
4BB	.	.	.
2C	.	2.A	1r
[2D	.	.	.
.	.	8GL	.
.	.	8AJ	.
=66	=66	=66	=66
!	!LO:N:vis=0.	!	!
4D]	0r	2B	0r
4E	.	.	.
4F	.	2A	.
4G	.	.	.
2A	.	2c	.
2D	.	4d	.
.	.	4c	.
=67	=67-	=67	=67
2F	0ryy	4B	0r
.	.	4A	.
2G	.	1d	.
1E	.	.	.
.	.	2c#i	.
=68	=68-	=68	=68
0D	0ryy	0d	0f
=69	=69	=69	=69
!	!LO:N:vis=0.	!	!
0r	0r	1.c	1e
.	.	.	[1a
.	.	4B	.
.	.	4A	.
=70	=70-	=70	=70
0r	0ryy	1G	2a]
.	.	.	4g
.	.	.	4f
.	.	1B	[1g
=71	=71-	=71	=71
0r	0ryy	2.A	2g]
.	.	.	4f
.	.	4G	4e
.	.	1A	1f
=72	=72	=72	=72
!	!LO:N:vis=0.	!	!
0r	0r	2G	2.g
.	.	2B	.
.	.	.	4f
.	.	2c	4e
.	.	.	4d
.	.	[2d	[2f
=73	=73-	=73	=73
0r	0ryy	2d]	2f]
.	.	1c	2e
.	.	.	1d
.	.	2B	.
=74	=74-	=74	=74
0r	0ryy	1c	0c
.	.	1r	.
=75	=75	=75	=75
!	!LO:N:vis=0.	!	!
0r	0r	2.C	0r
.	.	4D	.
.	.	2E	.
.	.	[2F	.
=76	=76-	=76	=76
0r	0ryy	2F]	2.c
.	.	1E	.
.	.	.	4d
.	.	.	2e
.	.	[2D	[2f
=77	=77-	=77	=77
0r	0ryy	2D]	2f]
.	.	1G	1e
.	.	2F	[2d
=78	=78	=78	=78
!	!LO:N:vis=0.	!	!
0r	0r	1G	2d]
.	.	.	1g
.	.	2A	.
.	.	4G	2f
.	.	4F	.
=79	=79-	=79	=79
0r	0ryy	2E	1g
.	.	2G	.
.	.	1F	1a
=80	=80-	=80	=80
0r	0ryy	2E	2g
.	.	1e	2e
.	.	.	1f
.	.	2d	.
=81	=81	=81	=81
!	!LO:N:vis=0.	!	!
0r	0r	2c	4e
.	.	.	4f
.	.	4B	4g
.	.	4A	4a
.	.	2G	2b
.	.	2A	[2cc
=82	=82-	=82	=82
0r	0ryy	2B	2cc]
.	.	2d	1b
.	.	1c	.
.	.	.	2a
=83	=83-	=83	=83
0r	0ryy	1B	1.b
.	.	1G	.
.	.	.	4a
.	.	.	4g
=84	=84	=84	=84
!	!LO:N:vis=0.	!	!
0r	0r	2r	2a
.	.	2.E	1g
.	.	4F	.
.	.	4G	4f
.	.	4A	4e
=85	=85-	=85	=85
0r	0ryy	2B	2d
.	.	1c	2c
.	.	.	2.e
.	.	2A	.
.	.	.	4f
=86	=86-	=86	=86
0r	0ryy	2B	2d
.	.	2c	1c
.	.	2.e	.
.	.	.	2A
.	.	4f	.
=87	=87	=87	=87
!	!LO:N:vis=0.	!	!
0r	0r	2d	2B
.	.	1c	2c
.	.	.	2.e
.	.	2A	.
.	.	.	4f
=88	=88-	=88	=88
0r	0ryy	2B	2d
.	.	2c	1c
.	.	2.e	.
.	.	.	2g
.	.	4f	.
=89	=89-	=89	=89
0r	0ryy	2d	2a
.	.	2c	1cc
.	.	1d	.
.	.	.	2b
=90	=90	=90	=90
!	!LO:N:vis=0.	!	!
0r	[y0e	2c	1.cc
.	.	1A	.
.	.	4G	4b
.	.	4F	4a
=91	=91-	=91	=91
1r	0e_yy	2E	1g
.	.	2C	.
2r	.	1c	1r
[2A	.	.	.
=92	=92-	=92	=92
2A]	0e]yy	2c	0r
4G	.	4B	.
4F	.	4A	.
1E	.	1G	.
=93	=93	=93	=93
!	!LO:N:vis=0.	!	!
2r	[y0c	1.A	0r
1F	.	.	.
4E	.	4G	.
4D	.	4F	.
=94	=94-	=94	=94
1C	0c_yy	2G	1r
.	.	2E	.
1r	.	[1F	2r
.	.	.	[2a
=95	=95-	=95	=95
0r	0c]yy	2F]	2a]
.	.	4E	4g
.	.	4D	4f
.	.	1C	1e
=96	=96	=96	=96
1r	0d	0r	2r
.	.	.	1f
1D	.	.	.
.	.	.	4e
.	.	.	4d
=97	=97-	=97	=97
!	!LO:N:vis=0	!	!
[0AA	[y0e	0A	0c
=98	=98-	=98	=98
0AA]	0e]yy	1.A	1.c
.	.	2B	2d
=99	=99	=99	=99
!	!LO:N:vis=0.	!	!
[0AA	[y0A	[0c	1e
.	.	.	1e
=100	=100-	=100	=100
1AA]	0A_yy	0c]	1e
1AA	.	.	[1e
=101	=101-	=101	=101
1AA	0A]yy	0c	1e]
1AA	.	.	1f
=102	=102	=102	=102
!	!LO:N:vis=0.	!	!
1GG	[y0B	0d	1.g
2r	.	.	.
[2G	.	.	4f
.	.	.	4e
=103	=103-	=103	=103
2G]	0B_yy	0r	1.d
4F	.	.	.
4E	.	.	.
2D	.	.	.
2E	.	.	[2g
=104	=104-	=104	=104
2D	0B]yy	1d	4g]
.	.	.	4a
2.G	.	.	1b
.	.	2B	.
4F	.	.	.
4E	.	[2e	[2g
4D	.	.	.
=105	=105	=105	=105
!	!LO:N:vis=0.	!	!
2.C	[y0c	4e]	2g]
.	.	4d	.
.	.	2.e	2.cc
4D	.	.	.
2E	.	.	.
.	.	4d	4b
[2F	.	4c	[2a
.	.	4B	.
=106	=106-	=106	=106
2F]	0c_yy	1.A	2a]
4E	.	.	4g
4D	.	.	4f
2F	.	.	2a
2E	.	2B	2g
=107	=107-	=107	=107
0AA	0c]yy	2.c	1.e
.	.	4d	.
.	.	[1e	.
.	.	.	2f
=108	=108	=108	=108
[0E	0B	1e]	0g
.	.	[1e	.
=109	=109-	=109	=109
!	!LO:N:vis=0	!	!
0E_	[y0G	2e]	1g
.	.	4d	.
.	.	4c	.
.	.	2B	[1b
.	.	2G	.
=110	=110-	=110	=110
0E]	0G]yy	1B	2b]
.	.	.	2g
.	.	1G	2.b
.	.	.	4cc
=111	=111	=111	=111
!	!LO:N:vis=0.	!	!
0D	[y0A	0F	2dd
.	.	.	4cc
.	.	.	4b
.	.	.	2.a
.	.	.	4b
=112	=112-	=112	=112
1C	0A_yy	1E	2.cc
.	.	.	4b
[1D	.	1F	4a
.	.	.	4g
.	.	.	[2f
=113	=113-	=113	=113
2D]	0A]yy	1D	2f]
4C	.	.	2d
4BB	.	.	.
1AA	.	1C	2e
.	.	.	2f
=114	=114	=114	=114
!	!LO:N:vis=0	!	!
[0GG	[y0B	1D	1.g
.	.	2r	.
.	.	[2d	4f
.	.	.	4e
=115	=115-	=115	=115
0GG]	0B]yy	4d]	2.d
.	.	4c	.
.	.	4B	.
.	.	4A	4c
.	.	2G	1d
.	.	2B	.
=116	=116-	=116	=116
[0AA	0E	2A	0c
.	.	2.c	.
.	.	4d	.
.	.	2e	.
=117	=117	=117	=117
0AA]	1F	2.c	0r
.	.	4d	.
!	!LO:N:vis=1	!	!
.	[y1E	1e	.
=118	=118-	=118	=118
0AA	1E]yy	2.e	0c
.	.	4d	.
!	!LO:N:vis=2.	!	!
.	[y1e	2c	.
.	.	4B	.
.	.	4A	.
=119	=119-	=119	=119
0r	2e]yy	1G	[0g
.	2d	.	.
.	1B	1r	.
=120	=120	=120	=120
0r	1c	2r	0g]
.	.	2E	.
.	1B	1E	.
=121	=121-	=121	=121
0r	2A	1.F	1.a
.	1c	.	.
.	2d	4E	4g
.	.	4D	4f
=122	=122-	=122	=122
0r	1B	1E	4g
.	.	.	4f
.	.	.	4e
.	.	.	4d
.	1A	1F	2c
.	.	.	2cc
=123	=123	=123	=123
0r	1d	0G	2b
.	.	.	2.dd
.	1B	.	.
.	.	.	4cc
.	.	.	4b
.	.	.	4a
=124	=124-	=124	=124
1r	1c	1C	2g
.	.	.	2e
1G	1B	1r	[1b
=125	=125-	=125	=125
1E	0c	0r	2b]
.	.	.	4a
.	.	.	4g
1F	.	.	1a
=126	=126	=126	=126
1G	1B	0G	1b
1E	1G	.	2r
.	.	.	2b
=127	=127-	=127	=127
1F	1c	1A	2a
.	.	.	2.cc
1D	1d	1F	.
.	.	.	4b
.	.	.	[2a
=128	=128-	=128	=128
0E	0B	0G	2a]
.	.	.	4g#i
.	.	.	4f#i
.	.	.	1g#i
=129	=129	=129	=129
0AAl	0Al	0El	0al
!!LO:LB:i:g=z
*	*rscale:1	*	*
=130||	=130||	=130||	=130||
*>B	*>B	*>B	*>B
*clefF4	*clefGv2	*clefGv2	*clefG2
*k[]	*k[]	*k[]	*k[]
*M2/1	*M2/1	*M2/1	*M2/1
*met(C|)	*met(C|)	*met(C|)	*met(C|)
!!section: Qui tollis
!!!OMD: Qui tollis
0r	0r	0E	0r
=131	=131	=131	=131
0r	0r	1B	0r
.	.	1B	.
=132	=132	=132	=132
0r	0r	1c	0A
.	.	2A	.
.	.	[2c	.
=133	=133	=133	=133
0r	0r	4c]	1e
.	.	4B	.
.	.	2A	.
.	.	2G	1e
.	.	[2A	.
=134	=134	=134	=134
0r	0r	4A]	1f
.	.	4G	.
.	.	4F	.
.	.	4E	.
.	.	2D	1f
.	.	4C	.
.	.	4D	.
=135	=135	=135	=135
0r	0E	2E	1e
.	.	2.C	.
.	.	.	[1e
.	.	4D	.
.	.	4E	.
.	.	4F	.
=136	=136	=136	=136
0r	1B	2.G	2e]
.	.	.	4d
.	.	4A	4c
.	1B	1G	1d
=137	=137	=137	=137
0AA	1c	2C	1e
.	.	2.c	.
.	1c	.	2.e
.	.	4d	.
.	.	[2e	.
.	.	.	4f
=138	=138	=138	=138
1E	1B	2e]	2g
.	.	4d	2.g
.	.	4c	.
1E	1G	2B	.
.	.	.	4f
.	.	[2e	4e
.	.	.	4d
=139	=139	=139	=139
1F	0A	4e]	1c
.	.	4d	.
.	.	4c	.
.	.	4B	.
1F	.	2c	1d
.	.	2d	.
=140	=140	=140	=140
1E	1r	1.G	0e
1C	1E	.	.
.	.	[2c	.
=141	=141	=141	=141
0D	0F	4c]	0r
.	.	4B	.
.	.	4A	.
.	.	4G	.
.	.	2A	.
.	.	2B	.
=142	=142	=142	=142
1C	1E	1c	0e
1AA	[1A	1C	.
=143	=143	=143	=143
2.BB	1A]	1r	0d
4AA	.	.	.
1BB	1G	1D	.
=144	=144	=144	=144
2AA	1.A	1E	2.c
1C	.	.	.
.	.	.	4d
.	.	1C	2.e
4BB	2G	.	.
4AA	.	.	4f
=145	=145	=145	=145
1GG	1E	1r	1g
1FF	1F	[1c	1a
=146	=146	=146	=146
1r	1G	1c]	1e
1FF	1A	[1c	[1f
=147	=147	=147	=147
0C	0E	1c]	2f]
.	.	.	2e
.	.	1c	[1e
=148	=148	=148	=148
0D	0F	1.A	1e]
.	.	.	1d
.	.	2B	.
=149	=149	=149	=149
1AA	0E	1.c	0e
1C	.	.	.
.	.	4B	.
.	.	4A	.
=150	=150	=150	=150
1BB	0r	1G	0r
1AA	.	2r	.
.	.	[2A	.
=151	=151	=151	=151
2r	0r	4A]	0r
.	.	4B	.
2.A	.	2.c	.
4B	.	4B	.
2c	.	2A	.
=152	=152	=152	=152
2B	0r	2G	0r
1A	.	2A	.
.	.	1F	.
4G	.	.	.
4F	.	.	.
=153	=153	=153	=153
2E	0r	2G	0r
2D	.	2A	.
1G	.	2B	.
.	.	[2G	.
=154	=154	=154	=154
2GG	0r	2G]	0r
2AA	.	2F	.
2GG	.	2G	.
2C	.	2A	.
=155	=155	=155	=155
2E	0r	2G	0r
2F	.	1c	.
1D	.	.	.
.	.	2B	.
=156	=156	=156	=156
[0C	[0e	[0c	[0g
=157	=157	=157	=157
1C]	1e]	1c]	1g]
1C	1e	1c	1g
=158	=158	=158	=158
0C	0e	0c	0g
=159	=159	=159	=159
0FF	0c	1.f	0a
.	.	4e	.
.	.	4d	.
=160	=160	=160	=160
0AA	0c	1c	1a
.	.	2A	[1a
.	.	[2c	.
=161	=161	=161	=161
1AA	1c	4c]	1a]
.	.	4B	.
.	.	4A	.
.	.	4G	.
1AA	1c	1F	1a
=162	=162	=162	=162
0GG	0d	2r	0b
.	.	1G	.
.	.	4F	.
.	.	4E	.
=163	=163	=163	=163
0GG	0d	2D	1b
.	.	1G	.
.	.	.	[1b
.	.	2A	.
=164	=164	=164	=164
0GG	0d	1.B	1b]
.	.	.	1g
.	.	4A	.
.	.	4B	.
=165	=165	=165	=165
[0C	[0e	[0c	[0g
=166	=166	=166	=166
0C]	0e]	0c]	0g]
=167	=167	=167	=167
1D	[0A	0r	1f
2C	.	.	2e
[2D	.	.	[2f
=168	=168	=168	=168
2D]	0A]	1r	2f]
2E	.	.	1e
1F	.	2r	.
.	.	[2A	2d
=169	=169	=169	=169
1E	1B	2A]	1.e
.	.	2G	.
1AA	1c	1A	.
.	.	.	2f
=170	=170	=170	=170
0r	1B	0E	2g
.	.	.	2a
.	[1G	.	[1b
=171	=171	=171	=171
0r	1G]	1E	1b]
.	1A	1F	[1a
=172	=172	=172	=172
0r	0B	1.E	2a]
.	.	.	4g
.	.	.	4f
.	.	.	2g
.	.	4D	2e
.	.	4C	.
=173	=173	=173	=173
0r	[0E	2C	4g
.	.	.	4a
.	.	2G	4b
.	.	.	8aL
.	.	.	8bJ
.	.	2E	2cc
.	.	4G	[2b
.	.	4A	.
=174	=174	=174	=174
0r	0E]	4B	2b]
.	.	8AL	.
.	.	8BJ	.
.	.	2c	1a
.	.	1B	.
.	.	.	2g#i
=175	=175	=175	=175
0r	0e	1.A	1a
.	.	.	[1cc
.	.	4G	.
.	.	4F	.
=176	=176	=176	=176
0r	1e	2.E	2cc]
.	.	.	2b
.	.	4D	.
.	1d	1G	[1b
=177	=177	=177	=177
0r	0c	1E	1b]
.	.	1F	1a
=178	=178	=178	=178
0GG	[0B	1G	1b
.	.	1G	2r
.	.	.	2B
=179	=179	=179	=179
1GG	0B]	2r	1d
.	.	2B	.
2r	.	1d	1r
2BB	.	.	.
=180	=180	=180	=180
1D	0r	2r	0r
.	.	2B	.
2r	.	2.d	.
2BB	.	.	.
.	.	4c	.
=181	=181	=181	=181
2.D	0r	2B	0r
.	.	2A	.
4C	.	.	.
2BB	.	1d	.
2AA	.	.	.
=182	=182	=182	=182
2.D	1r	0r	2r
.	.	.	2B
4C	.	.	.
4BB	2r	.	1d
4AA	.	.	.
2GG	2B	.	.
=183	=183	=183	=183
0r	1d	0r	2r
.	.	.	2B
.	2r	.	2.d
.	2B	.	.
.	.	.	4c
=184	=184	=184	=184
0r	2.d	0r	2B
.	.	.	2A
.	4c	.	.
.	2B	.	1d
.	2A	.	.
=185	=185	=185	=185
0r	1d	2r	1r
.	.	2B	.
.	1r	2.d	2r
.	.	.	2b
.	.	4c	.
=186	=186	=186	=186
0r	0r	2B	2.dd
.	.	2A	.
.	.	.	4cc
.	.	1d	2b
.	.	.	2a
=187	=187	=187	=187
1r	2r	1e	1cc
.	2A	.	.
2G	2.d	2d	2b
2F	.	2f	[2a
.	4c	.	.
=188	=188	=188	=188
2G	2B	2e	4a]
.	.	.	4b
2E	4A	2c	1g
.	4G	.	.
1D	1A	1d	.
.	.	.	2f#i
=189	=189	=189	=189
2.GG	1G	2B	1g
.	.	2c	.
4AA	.	.	.
2BB	2.G	2B	1r
2C	.	[2e	.
.	4A	.	.
=190	=190	=190	=190
2BB	2B	4e]	2.g
.	.	4d	.
2.E	2c	4c	.
.	.	8BL	4a
.	.	8AJ	.
.	2B	1G	2b
4D	.	.	.
4C	[2e	.	[2cc
4BB	.	.	.
=191	=191	=191	=191
2AA	4e]	2C	4cc]
.	4d	.	4b
2GG	2B	1G	1b
1AA	1c	.	.
.	.	2F	2a
=192	=192	=192	=192
1GG	2B	2.G	1b
.	2.e	.	.
.	.	4F	.
2C	.	2E	2cc
.	4d	.	.
2BB-	2f	2D	[2dd
=193	=193	=193	=193
1AA	1c	2E	4dd]
.	.	.	4cc
.	.	2C	1cc
1GG	1d	2.G	.
.	.	.	2b
.	.	4F	.
=194	=194	=194	=194
1C	2r	4E	2.cc
.	.	4D	.
.	1c	2C	.
.	.	.	4b
1r	.	1D	2a
.	2B	.	4g
.	.	.	4f
=195	=195	=195	=195
0r	2c	2.C	2.e
.	1A	.	.
.	.	4D	4d
.	.	1E	2c
.	2G	.	2B
=196	=196	=196	=196
0r	2A	2E	2c
.	2c	2C	1A
.	1B	2D	.
.	.	2E	2G
=197	=197	=197	=197
0r	2.A	2.F	4A
.	.	.	4B
.	.	.	4c
.	4B	8EL	4d
.	.	8DJ	.
.	4c	1C	2e
.	4d	.	.
.	[2e	.	2g
=198	=198	=198	=198
0r	2e]	1D	1f
.	2d	.	.
.	2c	1A	1e
.	[2e	.	.
=199	=199	=199	=199
0r	2e]	2G	2r
.	2d	1F	1a
.	2c	.	.
.	[2e	4E	[2g
.	.	4D	.
=200	=200	=200	=200
0r	2e]	1C	2g]
.	4d	.	4f
.	4c	.	4e
.	1B	1G	1d
=201	=201	=201	=201
0r	1c	1C	2c
.	.	.	1g
.	1B	1r	.
.	.	.	2a
=202	=202	=202	=202
0r	1.G	0r	1b
.	.	.	1e
.	2A	.	.
=203	=203	=203	=203
0r	1B	0r	2d
.	.	.	2.g
.	1E	.	.
.	.	.	4f
.	.	.	4e
.	.	.	4d
=204	=204	=204	=204
0r	1F	0r	2c
.	.	.	4B
.	.	.	4A
.	1E	.	2G
.	.	.	[2g
=205	=205	=205	=205
0r	2r	0r	4g]
.	.	.	4f
.	2.c	.	4e
.	.	.	4d
.	.	.	2e
.	4B	.	.
.	2d	.	2f
=206	=206	=206	=206
0r	2A	0r	2e
.	2c	.	1a
.	1B	.	.
.	.	.	2g#i
=207	=207	=207	=207
0r	1A	0r	1.a
.	[1c	.	.
.	.	.	4g
.	.	.	4f
=208	=208	=208	=208
0r	2c]	0r	1e
.	4B	.	.
.	4A	.	.
.	1B	.	1d
=209	=209	=209	=209
0r	[0E	0r	2e
.	.	.	2.g
.	.	.	4f
.	.	.	4e
.	.	.	4d
=210	=210	=210	=210
1r	1E]	0r	2c
.	.	.	2B
2r	1F	.	1r
[2D	.	.	.
=211	=211	=211	=211
2D]	1E	1r	0r
2C	.	.	.
1D	1r	2r	.
.	.	[2A	.
=212	=212	=212	=212
1E	0r	2A]	0r
.	.	2G	.
2.F	.	1A	.
4E	.	.	.
=213	=213	=213	=213
4D	0r	1B	0r
4C	.	.	.
2D	.	.	.
2C	.	1c	.
[2E	.	.	.
=214	=214	=214	=214
4E]	0r	2B	0r
4D	.	.	.
1G	.	2G	.
.	.	1A	.
2F	.	.	.
=215	=215	=215	=215
2G	0r	[0G	0r
1E	.	.	.
4D	.	.	.
4C	.	.	.
=216	=216	=216	=216
2BB	0r	1G]	0r
2.C	.	.	.
.	.	[1G	.
4BB	.	.	.
2GG	.	.	.
=217	=217	=217	=217
2BB	0r	2G]	0r
2C	.	4F#i	.
.	.	4E	.
1AA	.	1F#i	.
=218	=218	=218	=218
2.GG	0r	[0G	0r
4AA	.	.	.
2BB	.	.	.
[2C	.	.	.
=219	=219	=219	=219
4C]	0r	0G]	0r
4D	.	.	.
4E	.	.	.
4F	.	.	.
2G	.	.	.
2E	.	.	.
=220	=220	=220	=220
1F	0r	1A	0r
1E	.	1G	.
=221	=221	=221	=221
2E	0r	1c	0r
1F	.	.	.
.	.	1d	.
4E	.	.	.
4D	.	.	.
=222	=222	=222	=222
2C	0r	1.e	0r
2AA	.	.	.
2C	.	.	.
2D	.	[2f	.
=223	=223	=223	=223
1BB-	1r	2f]	0r
.	.	4e	.
.	.	4d	.
2.AA	1e	1c	.
4BB	.	.	.
=224	=224	=224	=224
2C	2e	1r	0r
1D	1f	.	.
.	.	1d	.
4C	4e	.	.
4BB	4d	.	.
=225	=225	=225	=225
2AA	1c	2e	0r
2.A	.	2.c	.
.	1r	.	.
4G	.	4B	.
4F	.	4A	.
4E	.	4G	.
=226	=226	=226	=226
2F	1d	2A	0r
2G	.	2B	.
1C	1e	1c	.
=227	=227	=227	=227
0F	2c	1.A	0r
.	2.d	.	.
.	4c	.	.
.	4B	4G	.
.	4A	4A	.
=228	=228	=228	=228
1E	2G	2B	1b
.	2E	2.G	.
1r	2G	.	2b
.	.	4E	.
.	2A	[2e	[2cc
=229	=229	=229	=229
0r	1F	2e]	2cc]
.	.	2d	4b
.	.	.	4a
.	2E	1e	1g
.	2e	.	.
=230	=230	=230	=230
0r	2f	2r	2a
.	1e	1c	1g
.	4d	4B	[2cc
.	4c	4A	.
=231	=231	=231	=231
1GG	1d	1G	2cc]
.	.	.	2b
[1AA	[1c	[1C	[1cc
=232	=232	=232	=232
2AA]	0c_	2C]	1cc]
2BB	.	2D	.
[1C	.	1E	1r
=233	=233	=233	=233
1C]	1c]	1E	1g
1FF	1r	[1F	[1a
=234	=234	=234	=234
1AA	1c	1F]	1a]
[1GG	[1d	1r	[1b
=235	=235	=235	=235
1GG]	1d]	1D	1b]
[1C	[1e	1C	1r
=236	=236	=236	=236
2C]	0e]	1.c	1g
2BB	.	.	.
2AA	.	.	[1a
2GG	.	2B	.
=237	=237	=237	=237
1AA	1c	2A	1a]
.	.	2c	.
[1GG	[1d	2B	[1b
.	.	[2G	.
=238	=238	=238	=238
1GG]	1d]	4G]	1b]
.	.	4A	.
.	.	2B	.
[1C	[1e	2G	[1cc
.	.	[2c	.
=239	=239	=239	=239
1C]	1e]	2c]	2cc]
.	.	1c	2b
[1FF	[1f	.	[1a
.	.	[2c	.
=240	=240	=240	=240
1FF]	2f]	2c]	2a]
.	2e	2.c	2g
1r	1d	.	1f
.	.	4A	.
.	.	2B	.
=241	=241	=241	=241
1r	[0c	2c	1e
.	.	2A	.
[1C	.	1G	2c
.	.	.	[2e
=242	=242	=242	=242
0C_	0c]	2C	4e]
.	.	.	4f
.	.	2.E	2.g
.	.	4G	4f
.	.	[2G	4e
.	.	.	4d
=243	=243	=243	=243
1C]	[0c	4G]	2c
.	.	4F	.
.	.	4E	1g
.	.	4D	.
[1C	.	2C	.
.	.	[2G	[2e
=244	=244	=244	=244
1C]	0c]	2G]	4e]
.	.	.	4c
.	.	1E	2c
1AA	.	.	2.e
.	.	2C	.
.	.	.	4f
=245	=245	=245	=245
1GG	1B	1G	1d
2r	[1c	[1C	1r
[2AA	.	.	.
=246	=246	=246	=246
4AA]	2c]	1C]	1c
4BB	.	.	.
4C	4B	.	.
4D	4A	.	.
1E	1G	1r	1B
=247	=247	=247	=247
1C	1c	0r	1.e
1G	1B	.	.
.	.	.	2d
=248	=248	=248	=248
1A	1.e	0r	1c
[1G	.	.	1B
.	4d	.	.
.	4c	.	.
=249	=249	=249	=249
1G]	1d	0r	2.b
.	.	.	8aL
.	.	.	8bJ
2A	2c	.	2cc
2G	2B	.	2dd
=250	=250	=250	=250
2A	2c	0r	2cc
2B	1d	.	2.b
2G	.	.	.
.	.	.	4a
2A	2c	.	[2a
=251	=251	=251	=251
1E	1B	0r	2a]
.	.	.	2g#i
[1AA	[1A	.	[1a
=252	=252	=252	=252
1AA]	1A]	1A	1a]
1r	1r	2B	1r
.	.	[2c	.
=253	=253	=253	=253
1A	0r	2c]	0r
.	.	4B	.
.	.	4A	.
2B	.	2G	.
[2c	.	2A	.
=254	=254	=254	=254
2c]	0r	1F	0r
4B	.	.	.
4A	.	.	.
2G	.	2E	.
2A	.	[2e	.
=255	=255	=255	=255
1F	0r	2e]	1a
.	.	2.d	.
1E	.	.	2b
.	.	4c	.
.	.	[2e	[2cc
=256	=256	=256	=256
1F	1A	2e]	2cc]
.	.	2d	4b
.	.	.	4a
2E	2B	[1e	2g
[2C	[2c	.	2e
=257	=257	=257	=257
4C]	2c]	1e]	2.g
4D	.	.	.
4E	4B	.	.
4F	4A	.	4a
2.G	2G	1r	1b
.	2E	.	.
4A	.	.	.
=258	=258	=258	=258
1B	2.G	1d	1r
.	4A	.	.
[1E	1B	1e	2r
.	.	.	[2g
=259	=259	=259	=259
2E]	1c	2c	4g]
.	.	.	4f
2C	.	1c	2e
1G	2r	.	1d
.	2d	2B	.
=260	=260	=260	=260
[0C	1.e	2c	1.c
.	.	4B	.
.	.	4A	.
.	.	[1G	.
.	2d	.	2d
=261	=261	=261	=261
1C]	1c	2G]	1e
.	.	2E	.
1GG	1B	[1G	2d
.	.	.	[2g
=262	=262	=262	=262
1D	1A	2G]	2g]
.	.	2D	2f
1r	2G	2E	4g
.	.	.	4f
.	[2A	2C	4e
.	.	.	4d
=263	=263	=263	=263
1r	4A]	2.F	2c
.	4G	.	.
.	4F	.	1f
.	4E	4G	.
2r	2D	4A	.
.	.	4B	.
[2C	2A	[2c	[2e
=264	=264	=264	=264
4C]	2G	1c]	2e]
4BB	.	.	.
2AA	2A	.	2f
2GG	2B	4d	2g
.	.	4e	.
[2FF	[2c	[2f	[2a
=265	=265	=265	=265
2FF]	4c]	4f]	4a]
.	4B	4e	4g
1FF	1A	2d	4f
.	.	.	4e
.	.	2c	2f
2GG	2G	2B	[2e
=266	=266	=266	=266
2AA	1F	2.c	2e]
2BB	.	.	2d
.	.	4d	.
2.C	[1El	2G	[1el
.	.	[2c	.
4D	.	.	.
=267	=267	=267	=267
4E	0E_	2c]	0e_
4F	.	.	.
2.G	.	1B	.
4F	.	.	.
4E	.	[2G	.
4D	.	.	.
=268	=268	=268	=268
2.C	0E_	2G]	0e_
.	.	1c	.
4BB	.	.	.
2AA	.	.	.
2GG	.	2B	.
=269	=269	=269	=269
1AA	0E]	2.c	0e]
.	.	4B	.
1EEl	.	1Bl	.
==	==	==	==
*-	*-	*-	*-
!!!RDF**kern: l=long note in original notation
!!!RDF**kern: i=editorial accidental
!!!RDF**kern: V=start of tuplet marker
!!!RDF**kern: Z=end of tuplet marker
!!!ENC:	Jesse Rodin; Megan K. Eagen 2013/04/23
!!!END:	2013/04/23/
!!!EED:	Jesse Rodin
!!!EEV:	2013/05/08/
!!!ONB:	Translated from MusicXML and edited on 2013/05/08/ by Craig Sapp
!!muse2ps: T^@{OPR}^u^@{ONM}{. }@{OTL}^C^@{COM}^i2I100v85,90,85,150c100Q16
